X:331
T:Vallkärramazurka
C:Nils Kristensson
R:Mazurka
B:Omtyckta Skånska allspelslåtar
Z:Patrik Månsson, 4/7 2008
O:Vallkärra, Skåne
M:3/4
L:1/8
Q:1/4=120
K:D % 2 sharps
|: "D"A3/2A/2 B2 A2 | D3/2F/2 A2 d2 | "A"c3/2d/2 e2 c2 | "D"d3/2e/2 f2 d2 | A3/2A/2 B2 A2 | D3/2F/2 A2 d2 | "A"c3/2d/2 e2 c2 | "D"d2d !fine!z z2 :|
K:A % 3 sharps
|: "A"e3/2f< ed< cB/2| A3/2c/2 c2 c2| "E7"B3/2d/2 d2 d2 | "A"c3/2e/2 e2 e2 | e3/2f< ed< cB/2 | A3/2a/2 a2 a2| "E7"g3/2a/2 b2 g2 | "A"a2a z z2 :|
(:musicend:)

(:music:)
